X:1
T:Pigtown Fling
M:C|
K:G
BA|"G"G2 ge "D7"d2 ed|"G"B2 ge "D7"dBAB|"G"G2 ge "D7"d2 ed|"G"BGAG "D(C)"EFGA|
"G"G2 ge "D7"d2 ed|"G"B2 ge "D7"dBAB|"G"G2 ge "D7"d2 ed|"G"BG "D"A2 "G"G2:|
|:"Em"B e2 e e3 g|"D"fgaf "G"gfed|"Em"B e2e e3 g|"D"fgaf "G"g2b2|
"Em"B e2 e e3 g|"D"fgaf "G"gfed|"Em"B e2 e e3 g|"D"fgaf "G"g4:|
